X:1
T:Title
%%score { ( 1 3 4 ) | ( 2 5 ) }
L:1/8
Q:1/4=100
M:4/4
K:C
V:1 treble nm="Grand Piano"
V:3 treble 
V:4 treble 
V:2 bass 
V:5 bass 
V:1
 [Ec]2 B2 c2 G2 | [CA]2[K:bass] [CA]2[K:treble] z4 | [DG]2 [Fd]2 [Ec]2 G2 | F4 z4 | %4
w: Caryl~Florio * * *||||
 [CEA]2 [CEA]2 [B,E^G]2 [^G,E]2 | [Ec]2 [Ec]2 B2 E2 | e2 [Ed]2 [Ec]2 [FB]2 | A2 A2 G4 | %8
w: ||||
 z4 z2 [DF]2 | [B,DF]2 [Fd]2 cBAG | G2 [Gc]2 [Ff]2 [Ge]2 | A2 z2 z4 |] %12
w: ||||
V:2
 [C,G,]2 [D,F,D]2 [E,C]2 [C,E,C]2 | .[F,,F,]2 .[A,,F,]2 [C,E,C]2 [C,G,C]2 | %2
 [B,,G,]2 [B,,G,]2 [C,G,]2 [E,G,C]2 | [D,A,C]2 [G,,G,]2 C,4 | A,,2 C,2 E,2 E,2 | %5
 [A,,A,]2 [C,A,]2 [E,A,E]2 [E,^G,]2 | [A,,CE]2 [B,,^G,]2 [C,A,]2 [D,B,]2 | %7
 [E,CE]2 [^F,CD]2 [G,B,D]4 | [E,B,E]2 C,2 D,C,B,,A,, | G,,2 [B,,G,]2 [C,G,]2 [D,F,B,]2 | %10
 [E,C]2 [E,C]2 [A,C]2 [G,C]2 | [F,C]2 z[K:treble] c[K:bass] C,4 |] %12
V:3
 x8 | z[K:bass] G,, z B,,[K:treble] G2 E2 | x8 | z2 z G [G,CE]4 | x8 | x8 | x8 | x8 | %8
 G2 [CEA]2 [A,DF]2 G,A, | z4 E2 z2 | x8 | d2- [B,Gd]2 [CEc]4 |] %12
V:4
 x8 | x[K:bass] x3[K:treble] x4 | x8 | z2 B,2 z4 | x8 | x8 | x8 | x8 | x8 | x8 | x8 | x8 |] %12
V:5
 x8 | x8 | x8 | x8 | x8 | x8 | x8 | x8 | x8 | x8 | x8 | z2 G,2[K:treble][K:bass] z4 |] %12

